icons/1_Primary/Mint Mobile.svg

<svg width="1024" height="1024" fill="none" xmlns="http://www.w3.org/2000/svg"><g clip-path="url(#a)"><path d="M512 1024c282.77 0 512-229.23 512-512S794.77 0 512 0 0 229.23 0 512s229.23 512 512 512Z" fill="#73ADA4"/><path d="M756.1 338.51v173.77c0 41.6 24.88 62.83 73.57 62.83H832v-26.06h-2.32c-29.09 0-43-13.45-43-41.18V427.4l45.32-.22V398.4h-45.32v-59.89H756.1Zm-238.86 20.8a20 20 0 1 0 0 40 20 20 0 0 0 0-40ZM271.6 370.18c-1.71 0-3.44.12-5.19.27-21.71 1.89-39.63 10.09-52.91 24.37-14.34 15.13-21.5 35.51-21.5 60.3v115.77h31.63v-118.7c0-14.71 4.22-27.33 12.23-37.41 8.01-10.08 18.55-15.13 32.25-15.13a53.069 53.069 0 0 1 35.83 13.44 42.809 42.809 0 0 1 15 33.2V570.9h31.83V446.3a42.8 42.8 0 0 1 15-33.2 52.305 52.305 0 0 1 35.83-13.44c13.7 0 24.24 5 32.67 15.35 8.22 10.3 12.65 22.9 12.65 37.19v118.7h31.63V455.13c0-24.79-7.38-45.17-21.92-60.3-14.33-14.29-32.24-22.48-54-24.37-28-2.31-51 9.25-68.1 34.46-16-23.64-37.2-35.27-62.89-34.73l-.04-.01Zm372.78 2.37c-25.51 0-46.81 8.61-63.67 25.84-16.86 17-25.29 38.87-25.29 64.72v107.58H586V460.38c0-15.76 5.9-29.42 17.5-40.76 11.6-11.34 25.51-17.23 41.11-17.23 15.39 0 29.09 5.68 40.68 17.23 11.59 11.35 17.5 25.21 17.5 40.76v110.31h30.57V463.11c0-25.84-8.43-47.49-25.29-64.72-17.08-17-38.36-25.84-63.66-25.84h-.03ZM501.24 413.1v157.8h30.56V413.74a36.707 36.707 0 0 1-14.55 2.95c-5.534.007-11-1.22-16-3.59h-.01Zm240.24 170.69c-3.44 0-5.16 1.717-5.16 5.15l-.12 76.1a19.684 19.684 0 0 0 6 14.38 19.133 19.133 0 0 0 14.28 6.07c3.44 0 5.16-1.717 5.16-5.15 0-3.3-1.71-5-5-5a9.866 9.866 0 0 1-7.16-3 10.269 10.269 0 0 1-3-7.25l.14-76.1c0-3.43-1.73-5.15-5-5.15l-.14-.05Zm-108.38.27c-3.44 0-5.16 1.7-5.16 5.13l-.14 60.55a33.99 33.99 0 0 0 10.32 25.18 34.79 34.79 0 0 0 25.15 10.43 35.637 35.637 0 0 0 25.249-10.403A35.633 35.633 0 0 0 699 649.73a35.166 35.166 0 0 0-21.807-32.985 35.173 35.173 0 0 0-13.653-2.635A34.433 34.433 0 0 0 638 624.8l.12-35.62c0-3.43-1.71-5.13-5-5.13l-.02.01Zm81.39 19a7.789 7.789 0 0 0-5 2.23 7.66 7.66 0 0 0 5.43 13.07 7.741 7.741 0 0 0 5.43-2.25 7.152 7.152 0 0 0 2.26-5.27 7.67 7.67 0 0 0-7.69-7.78h-.43Zm-262.68 10.79c-3.44 0-5.16 1.72-5.16 5l-.14 60.93c0 3.43 1.6 5.15 5 5.15s5.16-1.72 5.16-5.15l.12-40.62c0-4.055 1.611-7.944 4.478-10.812a15.294 15.294 0 0 1 21.624 0 15.294 15.294 0 0 1 4.478 10.812l-.14 40.62c0 3.43 1.73 5.15 5 5.15s5.15-1.72 5.15-5.15l.14-40.62a15.36 15.36 0 0 1 4.497-10.858 15.36 15.36 0 0 1 21.716 0 15.36 15.36 0 0 1 4.497 10.858l-.14 40.62c0 3.43 1.73 5.15 5 5.15s5.16-1.72 5.16-5.15v-40.2a24.268 24.268 0 0 0-7.41-17.95 25.457 25.457 0 0 0-19.798-7.451 25.448 25.448 0 0 0-18.592 10.091 23.831 23.831 0 0 0-8.774-7.677A23.83 23.83 0 0 0 472.31 614a24.35 24.35 0 0 0-15.31 5c0-3.427-1.72-5.143-5.16-5.15h-.03ZM583 614a34.318 34.318 0 0 0-25.28 10.42 33.927 33.927 0 0 0-10.59 25.06 35.735 35.735 0 0 0 10.672 24.878 35.734 35.734 0 0 0 50.106 0 35.735 35.735 0 0 0 10.672-24.878 33.794 33.794 0 0 0-10.45-25.06A34.527 34.527 0 0 0 583 614Zm217.29.39A34.317 34.317 0 0 0 775 624.8a33.927 33.927 0 0 0-10.59 25.06A35.652 35.652 0 0 0 800 685.48a35.702 35.702 0 0 0 18-4.74 32.137 32.137 0 0 0 13-12.93 7.075 7.075 0 0 0 .65-2.65 5.893 5.893 0 0 0-1.45-3.68 5.462 5.462 0 0 0-3.71-1.45c-1.46 0-2.9.92-4.23 2.64-1.33 1.72-2.25 3-2.92 3.95-4.76 5.8-11.11 8.72-19.18 8.72a24.55 24.55 0 0 1-19.06-8.72l48.17-27.55a4.325 4.325 0 0 0 2.51-4.1c0-3.56-2.65-7.37-7.81-11.46a43.84 43.84 0 0 0-12.71-7.13 33.998 33.998 0 0 0-11-2l.03.01ZM583 624a25.48 25.48 0 1 1-18 7.39 24.535 24.535 0 0 1 8.237-5.554A24.54 24.54 0 0 1 583 624Zm80.45.14a25.5 25.5 0 0 1 25.42 25.45 23.841 23.841 0 0 1-7.69 17.95 24.928 24.928 0 0 1-18 7.38 25.335 25.335 0 0 1-23.391-15.753 25.337 25.337 0 0 1 5.661-27.627 24.938 24.938 0 0 1 18-7.39v-.01Zm46.19.39-.14 55.67c0 3.43 1.73 5.15 5 5.15s5-1.72 5.16-5.15l.12-55.53c-1.58.526-3.235.79-4.9.78a17.074 17.074 0 0 1-5.29-.92h.05Zm90.38 0a24.15 24.15 0 0 1 18.98 8.72L775.76 658a24.69 24.69 0 0 1-1.33-8.19 24.366 24.366 0 0 1 7.57-17.88 24.938 24.938 0 0 1 18-7.39l.02-.01Z" fill="#fff"/></g><defs><clipPath id="a"><path fill="#fff" d="M0 0h1024v1024H0z"/></clipPath></defs></svg>

<svg width="1024" height="1024" viewBox="0 0 1024 1024" fill="none" xmlns="http://www.w3.org/2000/svg">
<g clip-path="url(#clip0_2_2823)">
<path d="M512 1024C794.77 1024 1024 794.77 1024 512C1024 229.23 794.77 0 512 0C229.23 0 0 229.23 0 512C0 794.77 229.23 1024 512 1024Z" fill="#73ADA4"/>
<path d="M756.1 338.51V512.28C756.1 553.88 780.98 575.11 829.67 575.11H832V549.05H829.68C800.59 549.05 786.68 535.6 786.68 507.87V427.4L832 427.18V398.4H786.68V338.51H756.1ZM517.24 359.31C511.936 359.31 506.849 361.417 503.098 365.168C499.347 368.919 497.24 374.006 497.24 379.31C497.24 383.266 498.413 387.132 500.611 390.421C502.808 393.71 505.932 396.274 509.586 397.788C513.241 399.301 517.262 399.697 521.142 398.926C525.021 398.154 528.585 396.249 531.382 393.452C534.179 390.655 536.084 387.091 536.856 383.212C537.627 379.332 537.231 375.311 535.718 371.656C534.204 368.002 531.64 364.878 528.351 362.681C525.062 360.483 521.196 359.31 517.24 359.31ZM271.6 370.18C269.89 370.18 268.16 370.3 266.41 370.45C244.7 372.34 226.78 380.54 213.5 394.82C199.16 409.95 192 430.33 192 455.12V570.89H223.63V452.19C223.63 437.48 227.85 424.86 235.86 414.78C243.87 404.7 254.41 399.65 268.11 399.65C281.309 399.518 294.084 404.31 303.94 413.09C308.729 417.18 312.556 422.276 315.149 428.014C317.742 433.753 319.036 439.993 318.94 446.29V570.9H350.77V446.3C350.674 440.003 351.968 433.763 354.561 428.024C357.154 422.286 360.981 417.19 365.77 413.1C375.587 404.255 388.388 399.453 401.6 399.66C415.3 399.66 425.84 404.66 434.27 415.01C442.49 425.31 446.92 437.91 446.92 452.2V570.9H478.55V455.13C478.55 430.34 471.17 409.96 456.63 394.83C442.3 380.54 424.39 372.35 402.63 370.46C374.63 368.15 351.63 379.71 334.53 404.92C318.53 381.28 297.33 369.65 271.64 370.19L271.6 370.18ZM644.38 372.55C618.87 372.55 597.57 381.16 580.71 398.39C563.85 415.39 555.42 437.26 555.42 463.11V570.69H586V460.38C586 444.62 591.9 430.96 603.5 419.62C615.1 408.28 629.01 402.39 644.61 402.39C660 402.39 673.7 408.07 685.29 419.62C696.88 430.97 702.79 444.83 702.79 460.38V570.69H733.36V463.11C733.36 437.27 724.93 415.62 708.07 398.39C690.99 381.39 669.71 372.55 644.41 372.55H644.38ZM501.24 413.1V570.9H531.8V413.74C527.202 415.704 522.25 416.708 517.25 416.69C511.716 416.697 506.25 415.47 501.25 413.1H501.24ZM741.48 583.79C738.04 583.79 736.32 585.507 736.32 588.94L736.2 665.04C736.169 667.719 736.685 670.376 737.717 672.849C738.749 675.321 740.274 677.557 742.2 679.42C744.024 681.373 746.237 682.922 748.697 683.968C751.156 685.013 753.808 685.532 756.48 685.49C759.92 685.49 761.64 683.773 761.64 680.34C761.64 677.04 759.93 675.34 756.64 675.34C755.306 675.35 753.983 675.09 752.752 674.574C751.522 674.059 750.408 673.299 749.48 672.34C747.56 670.416 746.481 667.809 746.48 665.09L746.62 588.99C746.62 585.56 744.89 583.84 741.62 583.84L741.48 583.79ZM633.1 584.06C629.66 584.06 627.94 585.76 627.94 589.19L627.8 649.74C627.693 654.422 628.555 659.075 630.331 663.408C632.107 667.74 634.759 671.66 638.12 674.92C641.395 678.26 645.311 680.905 649.632 682.698C653.954 684.49 658.592 685.392 663.27 685.35C667.956 685.361 672.598 684.447 676.93 682.662C681.263 680.877 685.201 678.256 688.519 674.947C691.838 671.639 694.472 667.709 696.27 663.382C698.068 659.055 698.996 654.416 699 649.73C699.06 645.049 698.185 640.403 696.426 636.065C694.668 631.727 692.06 627.783 688.758 624.466C685.455 621.148 681.523 618.523 677.193 616.745C672.863 614.967 668.221 614.071 663.54 614.11C658.775 614.028 654.045 614.935 649.648 616.776C645.252 618.616 641.286 621.348 638 624.8L638.12 589.18C638.12 585.75 636.41 584.05 633.12 584.05L633.1 584.06ZM714.49 603.06C712.608 603.174 710.832 603.966 709.49 605.29C708.42 606.362 707.692 607.728 707.398 609.214C707.104 610.7 707.258 612.24 707.839 613.639C708.42 615.038 709.403 616.233 710.664 617.073C711.924 617.914 713.405 618.361 714.92 618.36C716.955 618.353 718.906 617.545 720.35 616.11C721.07 615.435 721.642 614.618 722.031 613.711C722.419 612.804 722.617 611.827 722.61 610.84C722.625 609.822 722.436 608.811 722.056 607.866C721.676 606.922 721.112 606.062 720.396 605.338C719.68 604.614 718.827 604.039 717.887 603.648C716.947 603.257 715.938 603.057 714.92 603.06H714.53H714.49ZM451.81 613.85C448.37 613.85 446.65 615.57 446.65 618.85L446.51 679.78C446.51 683.21 448.11 684.93 451.51 684.93C454.91 684.93 456.67 683.21 456.67 679.78L456.79 639.16C456.79 635.105 458.401 631.216 461.268 628.348C464.136 625.481 468.025 623.87 472.08 623.87C476.135 623.87 480.024 625.481 482.892 628.348C485.759 631.216 487.37 635.105 487.37 639.16L487.23 679.78C487.23 683.21 488.96 684.93 492.23 684.93C495.5 684.93 497.38 683.21 497.38 679.78L497.52 639.16C497.52 635.088 499.138 631.182 502.017 628.302C504.897 625.423 508.803 623.805 512.875 623.805C516.947 623.805 520.853 625.423 523.733 628.302C526.612 631.182 528.23 635.088 528.23 639.16L528.09 679.78C528.09 683.21 529.82 684.93 533.09 684.93C536.36 684.93 538.25 683.21 538.25 679.78V639.58C538.317 636.239 537.694 632.92 536.419 629.832C535.143 626.743 533.244 623.951 530.84 621.63C528.267 619.041 525.168 617.036 521.752 615.75C518.336 614.465 514.683 613.929 511.042 614.179C507.401 614.43 503.856 615.46 500.648 617.202C497.44 618.943 494.644 621.353 492.45 624.27C490.206 621.024 487.191 618.386 483.676 616.593C480.161 614.801 476.255 613.91 472.31 614C466.787 613.882 461.388 615.645 457 619C457 615.573 455.28 613.857 451.84 613.85H451.81ZM583 614C578.297 613.912 573.626 614.791 569.277 616.584C564.929 618.376 560.995 621.043 557.72 624.42C554.321 627.64 551.626 631.529 549.803 635.842C547.981 640.155 547.071 644.798 547.13 649.48C547.287 658.851 551.12 667.786 557.802 674.358C564.485 680.929 573.482 684.612 582.855 684.612C592.228 684.612 601.225 680.929 607.908 674.358C614.59 667.786 618.423 658.851 618.58 649.48C618.665 644.807 617.781 640.168 615.982 635.855C614.183 631.541 611.51 627.648 608.13 624.42C604.865 621.072 600.955 618.421 596.635 616.63C592.315 614.839 587.676 613.944 583 614ZM800.29 614.39C795.586 614.299 790.914 615.176 786.563 616.967C782.213 618.758 778.277 621.424 775 624.8C771.601 628.02 768.906 631.909 767.083 636.222C765.261 640.535 764.351 645.178 764.41 649.86C764.418 659.299 768.169 668.35 774.841 675.028C781.513 681.705 790.561 685.464 800 685.48C806.314 685.519 812.525 683.884 818 680.74C823.497 677.784 828.014 673.291 831 667.81C831.387 666.977 831.607 666.077 831.65 665.16C831.605 663.803 831.093 662.503 830.2 661.48C829.19 660.547 827.865 660.029 826.49 660.03C825.03 660.03 823.59 660.95 822.26 662.67C820.93 664.39 820.01 665.67 819.34 666.62C814.58 672.42 808.23 675.34 800.16 675.34C796.536 675.383 792.948 674.623 789.653 673.115C786.358 671.608 783.437 669.39 781.1 666.62L829.27 639.07C830.047 638.712 830.701 638.131 831.148 637.401C831.595 636.671 831.815 635.825 831.78 634.97C831.78 631.41 829.13 627.6 823.97 623.51C820.161 620.441 815.865 618.031 811.26 616.38C807.729 615.111 804.012 614.435 800.26 614.38L800.29 614.39ZM583 624C588.897 624.013 594.607 626.071 599.156 629.823C603.705 633.575 606.812 638.789 607.948 644.576C609.083 650.362 608.175 656.364 605.38 661.556C602.586 666.749 598.076 670.811 592.621 673.051C587.166 675.29 581.103 675.569 575.466 673.838C569.828 672.107 564.966 668.475 561.707 663.56C558.449 658.645 556.996 652.752 557.596 646.886C558.197 641.019 560.813 635.543 565 631.39C567.338 628.997 570.141 627.106 573.237 625.836C576.332 624.565 579.654 623.94 583 624ZM663.45 624.14C670.191 624.161 676.648 626.85 681.412 631.619C686.175 636.388 688.857 642.85 688.87 649.59C688.928 652.955 688.273 656.295 686.947 659.388C685.622 662.482 683.656 665.26 681.18 667.54C678.828 669.914 676.022 671.791 672.93 673.059C669.838 674.327 666.522 674.96 663.18 674.92C658.159 674.907 653.255 673.403 649.091 670.598C644.926 667.793 641.688 663.815 639.789 659.167C637.889 654.519 637.413 649.412 638.421 644.493C639.429 639.574 641.875 635.066 645.45 631.54C647.802 629.164 650.607 627.286 653.699 626.016C656.791 624.747 660.108 624.112 663.45 624.15V624.14ZM709.64 624.53L709.5 680.2C709.5 683.63 711.23 685.35 714.5 685.35C717.77 685.35 719.5 683.63 719.66 680.2L719.78 624.67C718.2 625.196 716.545 625.46 714.88 625.45C713.079 625.424 711.294 625.114 709.59 624.53H709.64ZM800.02 624.53C803.635 624.47 807.217 625.222 810.502 626.731C813.787 628.24 816.691 630.468 819 633.25L775.76 658C774.858 655.365 774.408 652.595 774.43 649.81C774.399 646.47 775.055 643.159 776.357 640.084C777.66 637.008 779.58 634.232 782 631.93C784.352 629.554 787.157 627.676 790.249 626.406C793.342 625.137 796.657 624.502 800 624.54L800.02 624.53Z" fill="white"/>
</g>
<defs>
<clipPath id="clip0_2_2823">
<rect width="1024" height="1024" fill="white"/>
</clipPath>
</defs>
</svg>
